images/bus_stop.svg

<?xml version="1.0" encoding="UTF-8" standalone="no"?>
<svg xmlns:dc="http://purl.org/dc/elements/1.1/" xmlns:cc="http://creativecommons.org/ns#" xmlns:rdf="http://www.w3.org/1999/02/22-rdf-syntax-ns#" xmlns:svg="http://www.w3.org/2000/svg" xmlns="http://www.w3.org/2000/svg" xmlns:sodipodi="http://sodipodi.sourceforge.net/DTD/sodipodi-0.dtd" xmlns:inkscape="http://www.inkscape.org/namespaces/inkscape" viewBox="0 0 12 12" height="12" width="12" version="1.1" id="svg850" sodipodi:docname="bus_stop.12.svg" inkscape:version="0.92.4 (5da689c313, 2019-01-14)">
  <metadata id="metadata856">
    <rdf:RDF>
      <cc:Work rdf:about="">
        <dc:format>image/svg+xml</dc:format>
        <dc:type rdf:resource="http://purl.org/dc/dcmitype/StillImage" />
        <dc:title></dc:title>
      </cc:Work>
    </rdf:RDF>
  </metadata>
  <defs id="defs854" />
  <sodipodi:namedview pagecolor="#ffffff" bordercolor="#666666" borderopacity="1" objecttolerance="10" gridtolerance="10" guidetolerance="10" inkscape:pageopacity="0" inkscape:pageshadow="2" inkscape:window-width="1881" inkscape:window-height="1051" id="namedview852" showgrid="false" inkscape:pagecheckerboard="true" inkscape:zoom="71.5" inkscape:cx="6" inkscape:cy="6" inkscape:window-x="0" inkscape:window-y="0" inkscape:window-maximized="1" inkscape:current-layer="svg850" />
  <path id="outline" d="M 3,1 L 2,2 V 10 H 2.65625 C 2.65625,10 2.7573989,11 3.469,11 C 4.1581295,11 4.25,10 4.25,10 H 7.75 C 7.75,10 7.8643421,11 8.531,11 C 9.3474686,11 9.34375,10 9.34375,10 H 10 V 2 L 9,1 Z M 4,2 H 8 V 3 H 4 Z M 3,4 H 9 V 7 H 3 Z M 3,8 H 4 V 9 H 3 Z M 8,8 H 9 V 9 H 8 Z" style="opacity:0.5;fill:none;stroke:#ffffff;stroke-width:3;stroke-linecap:round;stroke-linejoin:round;stroke-miterlimit:4;stroke-dasharray:none;stroke-opacity:1" inkscape:connector-curvature="0" />
  <path d="m 3,1 -1,1 0,8 0.65625,0 c 0,0 0.1011489,1 0.81275,1 0.6891295,0 0.781,-1 0.781,-1 l 3.5,0 c 0,0 0.1143421,1 0.781,1 0.8164686,0 0.81275,-1 0.81275,-1 L 10,10 10,2 9,1 Z M 4,2 8,2 8,3 4,3 Z M 3,4 9,4 9,7 3,7 Z M 3,8 4,8 4,9 3,9 Z M 8,8 9,8 9,9 8,9 Z" id="path848" />
</svg>

<svg xmlns="http://www.w3.org/2000/svg" height="12" width="12">
    <path d="M3 1L2 2v8h.656s.101 1 .813 1c.69 0 .781-1 .781-1h3.5s.114 1 .781 1c.816 0 .813-1 .813-1H10V2L9 1zm1 1h4v1H4zM3 4h6v3H3zm0 4h1v1H3zm5 0h1v1H8z" opacity=".5" fill="none" stroke="#fff" stroke-width="3" stroke-linecap="round" stroke-linejoin="round"/>
    <path d="M3 1L2 2v8h.656s.101 1 .813 1c.69 0 .781-1 .781-1h3.5s.114 1 .781 1c.816 0 .813-1 .813-1H10V2L9 1zm1 1h4v1H4zM3 4h6v3H3zm0 4h1v1H3zm5 0h1v1H8z"/>
</svg>
